libs/ui/packages/crypto-icons/src/svg/LUN.svg

<svg width="24" height="24" viewBox="0 0 24 24" fill="none">
<path d="M11.8597 4.53612C11.9024 4.51228 11.9504 4.49976 11.9992 4.49976C12.0481 4.49976 12.0961 4.51228 12.1387 4.53612L18.3075 7.99962C18.3496 8.02288 18.3848 8.05698 18.4093 8.09838C18.4338 8.13979 18.4468 8.187 18.447 8.23512C18.447 8.33262 18.3945 8.42262 18.3082 8.47062L12.942 11.4961C12.7527 11.281 12.4949 11.1379 12.2123 11.0911V9.44637C12.7935 9.34962 13.2368 8.85762 13.2368 8.26287C13.2368 7.59912 12.6847 7.06062 12.003 7.06062C11.3212 7.06062 10.7692 7.59912 10.7692 8.26287C10.7692 8.85387 11.208 9.34437 11.7847 9.44487V11.0934C11.5059 11.1413 11.2519 11.2832 11.0648 11.4954L5.69925 8.48262C5.65697 8.45956 5.62168 8.42554 5.59706 8.38415C5.57245 8.34276 5.55942 8.2955 5.55934 8.24734C5.55926 8.19918 5.57214 8.15189 5.59662 8.11042C5.62111 8.06894 5.6563 8.03482 5.6985 8.01162L11.8605 4.53837L11.8597 4.53612ZM18.3255 8.90112C18.368 8.87702 18.416 8.86429 18.4649 8.86416C18.5138 8.86403 18.5619 8.8765 18.6045 8.90037C18.6467 8.92365 18.6819 8.95774 18.7065 8.99912C18.7312 9.04051 18.7444 9.0877 18.7448 9.13587L18.75 15.8604C18.75 15.9579 18.6975 16.0471 18.6105 16.0959L12.6368 19.4634C12.4515 19.5684 12.219 19.4371 12.219 19.2279L12.2137 13.4581C12.5033 13.4101 12.7657 13.2624 12.954 13.0419L14.4465 13.8781C14.4054 14.0316 14.3959 14.1919 14.4188 14.3491C14.5133 15.0069 15.138 15.4644 15.8123 15.3721C16.4873 15.2791 16.9567 14.6709 16.8622 14.0131C16.7677 13.3554 16.1423 12.8979 15.468 12.9909C15.3004 13.0133 15.1392 13.0699 14.9945 13.1573C14.8497 13.2446 14.7245 13.3608 14.6265 13.4986L13.164 12.6789C13.269 12.4006 13.2615 12.0939 13.1453 11.8201L18.3263 8.89962L18.3255 8.90112ZM5.256 9.13512C5.256 8.97612 5.3895 8.86287 5.535 8.86287C5.58375 8.86287 5.6325 8.87562 5.6745 8.90037L10.8608 11.8239C10.746 12.0969 10.74 12.4014 10.8435 12.6789L9.38175 13.4986C9.28376 13.3608 9.1585 13.2447 9.01374 13.1573C8.86898 13.07 8.70782 13.0133 8.54025 12.9909C7.86525 12.8979 7.242 13.3561 7.14675 14.0131C7.0515 14.6701 7.52175 15.2784 8.19675 15.3714C8.87175 15.4644 9.49425 15.0061 9.59025 14.3491C9.61318 14.1916 9.60374 14.0311 9.5625 13.8774L11.0543 13.0411C11.241 13.2601 11.5005 13.4071 11.787 13.4566L11.7825 19.2279C11.7825 19.4371 11.55 19.5676 11.364 19.4626L5.3895 16.0951C5.34737 16.0719 5.31222 16.0378 5.2877 15.9964C5.26317 15.955 5.25015 15.9077 5.25 15.8596L5.256 9.13512Z" fill="#F55749"/>
</svg>

<svg width="24" height="24" viewBox="0 0 24 24" fill="none"><path fill="#f55749" d="M11.86 4.536a.29.29 0 0 1 .279 0L18.308 8a.27.27 0 0 1 0 .47l-5.366 3.026a1.24 1.24 0 0 0-.73-.405V9.446a1.21 1.21 0 0 0 1.025-1.183c0-.664-.552-1.202-1.234-1.202s-1.234.538-1.234 1.202c0 .59.439 1.081 1.016 1.182v1.648a1.24 1.24 0 0 0-.72.402L5.699 8.483a.269.269 0 0 1 0-.471l6.162-3.474zm6.466 4.365a.284.284 0 0 1 .38.098.3.3 0 0 1 .039.137l.005 6.724a.27.27 0 0 1-.14.236l-5.973 3.367c-.186.105-.418-.026-.418-.235l-.005-5.77a1.24 1.24 0 0 0 .74-.416l1.492.836a1.2 1.2 0 0 0-.027.471c.094.658.719 1.115 1.393 1.023.675-.093 1.145-.701 1.05-1.359s-.72-1.115-1.394-1.022a1.23 1.23 0 0 0-.841.508l-1.463-.82a1.15 1.15 0 0 0-.019-.859zm-13.07.234c0-.159.133-.272.279-.272q.075 0 .14.037l5.186 2.924a1.16 1.16 0 0 0-.018.855l-1.461.82a1.23 1.23 0 0 0-.842-.508c-.675-.093-1.298.365-1.393 1.022-.096.657.375 1.265 1.05 1.358s1.297-.365 1.393-1.022a1.2 1.2 0 0 0-.027-.472l1.491-.836c.187.22.447.366.733.416l-.005 5.77c0 .21-.232.34-.418.236l-5.975-3.368a.27.27 0 0 1-.139-.235z"/></svg>
